X: 45
T: 41. QUADRILLE
B: Sam Bayard, "Hill Country Tunes" 1944 #41
S: Played by Mrs Sarah Armstrong, (near) Derry, PA, Nov. 18, 1943.
N: A quadrille always played at the dances in Schwalm's Grove,
N: a dancing ground not far from Derry [Pennsylvania].
R: jig
M: 6/8
L: 1/8
Z: 2010 John Chambers <jc:trillian.mit.edu>
K: A
E |\
A2E A2c | e2e ece | fga e2c | e3 efg |
agf d2f | fec A2c | "a."efe dcB | A2z A2z :|
|: e |\
a2e g2e | fec Ace | A2e g2e | fec B3 |
a2e g2e | fec Acd | efe dcB | A2Z Za :|
P: Var:
"a."e2e |] y6 y6 y6 y6 y6 y6 y6 y6

%%sep 2 1 500
%%sep 1 1 500

